dist/assets/image/Twitter.svg

<svg width="32" height="32" viewBox="0 0 32 32" fill="none" xmlns="http://www.w3.org/2000/svg">
<path d="M11.3466 26.6667H11.24C9.09111 26.6479 6.97333 26.1514 5.03996 25.2133C4.30997 24.8704 3.88837 24.0921 3.99996 23.2933H3.99996C4.12124 22.4897 4.74519 21.855 5.54663 21.72H5.54663C6.74477 21.5601 7.89741 21.1563 8.93329 20.5333H8.93329C5.26931 17.6687 3.4722 13.0249 4.25329 8.44V8.44C4.35945 7.71204 4.88046 7.11288 5.58663 6.90667C6.27431 6.6907 7.02452 6.90579 7.49329 7.45333H7.49329C9.06696 9.51684 11.4197 10.8427 14 11.12V11.12C14.0609 9.54913 14.736 8.06496 15.88 6.98667C18.2574 4.71012 22.0301 4.79189 24.3067 7.16931C24.3291 7.19269 24.3513 7.21626 24.3733 7.24C24.6599 7.49337 25.0721 7.54621 25.4133 7.37333C26.3391 6.93671 27.4435 7.33324 27.8801 8.25901C28.0638 8.64835 28.1061 9.08948 28 9.50667C27.6924 10.7735 27.1097 11.9571 26.2933 12.9733L26.2933 12.9733C25.9187 20.8687 19.2446 26.9832 11.3466 26.6667L11.3466 26.6667ZM11.3466 24H11.4533C17.9222 24.2225 23.3467 19.1588 23.5692 12.6898C23.5709 12.6421 23.5722 12.5944 23.5733 12.5467V12.5467C23.5953 12.1217 23.7706 11.719 24.0666 11.4133C24.3918 11.0017 24.6692 10.5543 24.8933 10.08C23.9218 10.0818 22.9955 9.66964 22.3466 8.94666V8.94666C21.7233 8.32866 20.8776 7.98747 20 8C19.1137 7.97708 18.2548 8.30815 17.6133 8.92V8.92C16.7411 9.74761 16.3754 10.9769 16.6533 12.1467L17 13.6667L15.44 13.7733C12.2046 14.0371 9.01665 12.8672 6.71995 10.5733L6.71995 10.5733C6.62071 14.1526 8.54381 17.4832 11.6933 19.1867L12.96 19.9067L12.12 21.1067C11.2116 22.298 9.96687 23.1897 8.54663 23.6667H8.54663C9.45771 23.895 10.394 24.007 11.3333 24L11.3466 24Z" fill="#828282"/>
</svg>

<svg xmlns="http://www.w3.org/2000/svg" width="32" height="32" fill="none"><path d="M11.347 26.667h-.107c-2.15-.02-4.267-.515-6.2-1.453A1.84 1.84 0 0 1 4 23.293a1.88 1.88 0 0 1 1.547-1.573 8.84 8.84 0 0 0 3.387-1.187C5.27 17.67 3.472 13.025 4.253 8.44a1.88 1.88 0 0 1 1.333-1.533 1.8 1.8 0 0 1 1.907.547C9.067 9.517 11.42 10.843 14 11.12a6 6 0 0 1 1.88-4.133 5.96 5.96 0 0 1 8.427.183l.067.07c.287.253.7.306 1.04.133.926-.437 2.03-.04 2.467.886.184.39.226.83.12 1.248a8.88 8.88 0 0 1-1.707 3.467 14.39 14.39 0 0 1-14.947 13.693zm0-2.667h.107c6.47.223 11.893-4.84 12.116-11.3l.004-.143a1.76 1.76 0 0 1 .493-1.133 6.92 6.92 0 0 0 .827-1.333c-.97.002-1.898-.4-2.547-1.133-.623-.618-1.47-.96-2.347-.947-.886-.023-1.745.308-2.387.92-.872.828-1.238 2.057-.96 3.227l.347 1.52-1.56.107c-3.235.264-6.423-.906-8.72-3.2-.1 3.58 1.824 6.9 4.973 8.613l1.267.72-.84 1.2c-.908 1.19-2.153 2.083-3.573 2.56.91.228 1.847.34 2.787.333h.013z" fill="#828282"/></svg>
